frontend/svgs/tip_arrow6.svg

<svg xmlns="http://www.w3.org/2000/svg" preserveAspectRatio="none" viewBox="-0.5 -0.5 51 51"><path class="svg_main_path" d="M17.32 39.75l7.43 7.42-24.4 2.48 2.48-24.4 7.42 7.43 22.43-22.43-7.43-7.42L49.65.35l-2.48 24.4-7.42-7.43z" fill="#f7f7c6" stroke="#000" stroke-linejoin="round" stroke-miterlimit="10" pointer-events="all"/></svg>

<svg xmlns="http://www.w3.org/2000/svg" xmlns:xlink="http://www.w3.org/1999/xlink" version="1.1" preserveAspectRatio="none" viewBox="-0.5 -0.5 51 51"><defs/><g><path class="svg_main_path" d="M 17.32 39.75 L 24.75 47.17 L 0.35 49.65 L 2.83 25.25 L 10.25 32.68 L 32.68 10.25 L 25.25 2.83 L 49.65 0.35 L 47.17 24.75 L 39.75 17.32 Z" fill="#f7f7c6" stroke="#000000" stroke-linejoin="round" stroke-miterlimit="10" pointer-events="all"/></g></svg>
